src/assets/icons/google.svg

<svg width="18" height="19" viewBox="0 0 18 19" fill="none" xmlns="http://www.w3.org/2000/svg">
<path d="M17.8249 7.55102H17.1V7.51367H9V11.1136H14.0864C13.3443 13.2093 11.3503 14.7136 9 14.7136C6.01785 14.7136 3.6 12.2958 3.6 9.31366C3.6 6.33153 6.01785 3.9137 9 3.9137C10.3765 3.9137 11.6289 4.43299 12.5824 5.28124L15.1281 2.7356C13.5207 1.23756 11.3706 0.313721 9 0.313721C4.02975 0.313721 0 4.34344 0 9.31366C0 14.2839 4.02975 18.3136 9 18.3136C13.9703 18.3136 18 14.2839 18 9.31366C18 8.71021 17.9379 8.12117 17.8249 7.55102Z" fill="#FFC107"/>
<path d="M1.0376 5.12464L3.99455 7.29317C4.79465 5.31229 6.73235 3.9137 8.9999 3.9137C10.3764 3.9137 11.6288 4.43299 12.5823 5.28124L15.128 2.7356C13.5206 1.23756 11.3705 0.313721 8.9999 0.313721C5.543 0.313721 2.5451 2.26536 1.0376 5.12464Z" fill="#FF3D00"/>
<path d="M8.99956 18.3138C11.3243 18.3138 13.4366 17.4242 15.0336 15.9774L12.2481 13.6204C11.3445 14.3048 10.2213 14.7139 8.99956 14.7139C6.65866 14.7139 4.671 13.2212 3.9222 11.1382L0.987305 13.3994C2.4768 16.314 5.50171 18.3138 8.99956 18.3138Z" fill="#4CAF50"/>
<path d="M17.825 7.55127H17.1V7.51392H9V11.1139H14.0864C13.73 12.1205 13.0824 12.9886 12.2472 13.6208C12.2476 13.6204 12.2481 13.6204 12.2485 13.6199L15.034 15.977C14.8369 16.1561 18 13.8139 18 9.3139C18 8.71046 17.9379 8.12141 17.825 7.55127Z" fill="#1976D2"/>
</svg>

<svg xmlns="http://www.w3.org/2000/svg" width="18" height="19" fill="none"><path fill="#FFC107" d="M17.825 7.551H17.1v-.037H9v3.6h5.086A5.398 5.398 0 0 1 3.6 9.314a5.4 5.4 0 0 1 5.4-5.4c1.377 0 2.629.519 3.582 1.367l2.546-2.545A8.959 8.959 0 0 0 9 .314a9 9 0 1 0 8.825 7.237Z"/><path fill="#FF3D00" d="m1.038 5.125 2.957 2.168A5.398 5.398 0 0 1 9 3.913c1.376 0 2.629.52 3.582 1.368l2.546-2.545A8.959 8.959 0 0 0 9 .314a8.995 8.995 0 0 0-7.962 4.81Z"/><path fill="#4CAF50" d="M9 18.314c2.324 0 4.437-.89 6.034-2.337l-2.786-2.357A5.36 5.36 0 0 1 9 14.714a5.398 5.398 0 0 1-5.078-3.576L.987 13.4A8.993 8.993 0 0 0 9 18.314Z"/><path fill="#1976D2" d="M17.825 7.551H17.1v-.037H9v3.6h5.086a5.418 5.418 0 0 1-1.839 2.507l.002-.001 2.785 2.357c-.197.18 2.966-2.163 2.966-6.663 0-.604-.062-1.193-.175-1.763Z"/></svg>
